X:334
T: ES WAREN EINMAL DREI REITER
N: F0576
O: Europa, Mitteleuropa, Deutschland
R: Soldaten - Lied, Gefangenschaft, Tod; Ballade
M: 4/4
L: 1/16
K: C
G,2G,2 | C4C2C2C4E2E2 | C4G,2G,2E,4
G,2G,2 | E6C2E2D2D2B,2 | C8z4
C2D2 | E4E2E2F2E2D2C2 | D6E2D4
G,2B,2 | D4D2F2E2D2C2B,2 | C4G,4E,4
G,3G, | E6C2E2D2D2B,2 | C8z4

@@@ Tune index: 5765
